X: 09046
T: HALL'S HORNPIPE
C: Bob McQuillen 15 Nov 92
B: Bob's Note Book 9 #48
%R: hornpipe, reel
Z: 2018 John Chambers <jc:trillian.mit.edu>
M: C
L: 1/8
K: G
dc \
| B2GD GBdB | cBAB c2dc | BGBd gdBG | cBAG Fedc |
| B2GD GBdB | cBAB c2dc | BGBd cedc | B2G2 G2 :|
|: dc \
| Bdga bgdc | Bdga g2dc | Bdga gedB | c2A2 A2GA |
| BdBG D2Bd | cecA E2ce | dgfa gedc | B2G2 G2 :|
%%begintext align
%% That night, a brand new contradance band had its
%% "World Premier" when "Old New England" played over in Francestown[?]. The fiddler
%% was Janie Orzechowski, Dearma[?] Stiles played flute and piccolo, and I
%% played piano. We had a real nice evening. There was a pretty good turn-out, and
%% the reason for that was that Ed Hall, from Greenfield NH, who did a great
%% job calling the dance, did everything he could to publicize it, including
%% having some really neat fliers printed. Thanks loads for all your hard
%% work, Ed - we really appreciate all you did to launch us in style!
%%endtext

%%sep 1 1 500

%%sep 1 1 500

